X:2
T:Polka from Kongsberg
R:polka
M:2/4
L:1/8
K:D
|:  "D/A"Ad "D"(FG/F/) | "Em/A"EF "Em"G2 | "A"GB "A/E"EG | "D"FG "D/A"A2
| "D"Af "D/A"(de/d/) | "A/E"cB "A"A2 | "A7/E"AA/A/ "A7"Bc | "D"(d"D/A"d) "D"d2 :|
|: "A"(Bc/B/) "A/E"Ac | "A"e2 "A/C#"e2 | "D"(Bc/B/) "D/A"Ad | "D"f2 "D/F#"f2
| "G"(ga/g/) "D"(fg/f/) | "A"ec "A/E"A2 | "A"AA/A/ "A/C#"Bc | "D"(d"D/A"d) "D"d2 :|
